X:1
T:Title
%%score { ( 1 2 5 ) | ( 3 4 ) }
L:1/8
Q:1/4=100
M:3/4
K:C
V:1 treble nm="Grand Piano"
V:2 treble 
V:5 treble 
V:3 bass 
V:4 bass 
V:1
 z2 .A2 z2 | A2 z F Ac | [Af]>[Af] [Af][Ae] [Ad]A | z2 _B2 z2 | [CG_B]2 .[CGB]2 z2 | %5
 [CEG]2 .[CEG]2 z2 | [Ge]>[Ge] [Ge][_Bd] [Ac][EG] | _B>A Ac [Ac][Ac] | ^c2 cc cc | d2 dd dd | %10
 d2 dd dd | e2 ee ee | e2 ee ee | [Af]2 [Af]2 [Af]d | c4 [DB]2 | [Ec]4 z2 | z2 .A2 z2 | A2 z F Ac | %18
 [Af]>[Af] [Af][Ae] [Ad]A | z2 _B2 z2 | [CG_B]2 .[CGB]2 z2 | [CEG]2 .[CEG]2 z2 | %22
 [Ge]>[Ge] [Ge][_Bd] [Ac][EG] | _B>A Ac [Ac][Ac] | ^c2 cc cc | d2 dd dd | d2 dd dd | e2 ee ee | %28
 e2 ee ee | [Af]2 [Af]2 [D_Bf][Fd] | [Fc]4 E2 |[M:2/4] F4 |[M:1/4] EF |[M:3/4] [EG]A G2 c2 | %34
 z2 z f ec | [Ge]d A2 BA |[M:2/4] A2 z2 |[M:1/4] [CEG]2 |[M:3/4] [A,D^F]2 [Fd][Fe] [Fd][FA] | %39
 [Ac]2 [GB]2 [EA]2 | G^F [B,DG][B,D] [EAc][DGB] |[M:7/8] [C^FA]2 [B,G]3 E=F |[M:3/4] [EG]A G2 c2 | %43
 z2 z f ec | [Ge]d A2 BA | A2 z2 z2 | [B,E^G]2 [Ge][Gf] [Ge][GB] | [Bd]2 [Ac]2 [Ad]2 | cB cG fe | %49
 d2 [Ec]2 z2 | z2 .A2 z2 | A2 z F Ac | [Af]>[Af] [Af][Ae] [Ad]A | z2 _B2 z2 | [CG_B]2 .[CGB]2 z2 | %55
 [CEG]2 .[CEG]2 z2 | [Ge]>[Ge] [Ge][_Bd] [Ac][EG] | _B>A Ac [Ac][Ac] | ^c2 cc cc | d2 dd dd | %60
 d2 dd dd | e2 ee ee | e2 ee ee | [Af]2 [Af]2 [D_Bf][Fd] | [Fc]4 E2 |[M:2/4] F4 |[M:1/4] EF | %67
[M:3/4] [EG]A G2 c2 | z2 z f ec | [Ge]d A2 BA |[M:2/4] A2 z2 |[M:1/4] [CEG]2 | %72
[M:3/4] [A,D^F]2 [Fd][Fe] [Fd][FA] | [Ac]2 [GB]2 [EA]2 | G^F [B,DG][B,D] [EAc][DGB] | %75
[M:7/8] [C^FA]2 [B,G]3 E=F |[M:3/4] [EG]A G2 c2 | z2 z f ec | [Ge]d A2 BA | A2 z2 z2 | %80
 [B,E^G]2 [Ge][Gf] [Ge][GB] | [Bd]2 [Ac]2 [Ad]2 | cB cG fe | d2 [CEc]2 z2 |[M:1/4] z2 | %85
[M:3/4] z2 z2 [CE_B]2 | [CFA]4 z2 | z2 z2 [CE_B]2 | [CFA]4 z2 | [Fd]>[Fd] [Fd][Ec] [D_B][DF] | %90
 [CEA]>[_B,EG] [B,EG]2 [A,DF]2 | [G,DF]4 [_B,CE]2 | [A,CF]4 z2 |] %93
V:2
 [Ac]2 c-[Ec] FG | z2 A2 z2 | x6 | c>_B z C EG | x6 | x6 | x6 | x6 | x6 | x6 | x6 | x6 | x6 | x6 | %14
 x6 | x6 | [Ac]2 c-[Ec] FG | z2 A2 z2 | x6 | c>_B z C EG | x6 | x6 | x6 | x6 | x6 | x6 | x6 | x6 | %28
 x6 | x6 | x6 |[M:2/4] x4 |[M:1/4] x2 |[M:3/4] x6 | [Ge]4 z2 | x6 |[M:2/4] E2- [CEG]2 |[M:1/4] x2 | %38
[M:3/4] x6 | x6 | x6 |[M:7/8] x7 |[M:3/4] x6 | [Ge]4 z2 | x6 | E2- [CEG]2 [CEG]2 | x6 | x6 | x6 | %49
 x6 | [Ac]2 c-[Ec] FG | z2 A2 z2 | x6 | c>_B z C EG | x6 | x6 | x6 | x6 | x6 | x6 | x6 | x6 | x6 | %63
 x6 | x6 |[M:2/4] x4 |[M:1/4] x2 |[M:3/4] x6 | [Ge]4 z2 | x6 |[M:2/4] E2- [CEG]2 |[M:1/4] x2 | %72
[M:3/4] x6 | x6 | x6 |[M:7/8] x7 |[M:3/4] x6 | [Ge]4 z2 | x6 | E2- [CEG]2 [CEG]2 | x6 | x6 | x6 | %83
 x6 |[M:1/4] x2 |[M:3/4] x6 | x6 | x6 | x6 | x6 | x6 | x6 | x6 |] %93
V:3
 [F,C]2 [F,C]2 z2 | [F,CF]2 .[F,CF]2 z2 | [F,C]>[F,C] [F,C][F,C] [F,C][F,CF] | %3
 [G,CE]>[G,CE] .[G,CE]2 z2 | C,2 z[K:treble] D EF | C,2 z[K:treble] E Gc | %6
 [C,C]>[C,C] [C,C][C,C] [C,C][C,C] | [F,DF]>[F,CF] [F,CF][F,A,F] [F,C][K:treble][F,F] | %8
 [A,EA]2 [A,EA][A,EA] [A,EG][A,EG] | [_B,DF]2 [B,F][B,F] [B,F][A,B,F] | %10
 [G,B,G]2 [G,B,G][G,B,G] [G,B,G][G,B,G] | [CG]2 [CG][CG] [CG][_B,CG] | %12
 [A,^CA]2 [A,CA][A,CA] [A,CA][A,CA] | [D,D]2 [D,D]2 [D,D][F,A,F] | [G,E]4 [G,,G,]2 | [C,G,]4 z2 | %16
 [F,C]2 [F,C]2 z2 | [F,CF]2 .[F,CF]2 z2 | [F,C]>[F,C] [F,C][F,C] [F,C][F,CF] | %19
 [G,CE]>[G,CE] .[G,CE]2 z2 | C,2 z[K:treble] D EF | C,2 z[K:treble] E Gc | %22
 [C,C]>[C,C] [C,C][C,C] [C,C][C,C] | [F,DF]>[F,CF] [F,CF][F,A,F] [F,C][K:treble][F,F] | %24
 [A,EA]2 [A,EA][A,EA] [A,EG][A,EG] | [_B,DF]2 [B,F][B,F] [B,F][A,B,F] | %26
 [G,B,G]2 [G,B,G][G,B,G] [G,B,G][G,B,G] | [CG]2 [CG][CG] [CG][_B,CG] | %28
 [A,^CA]2 [A,CA][A,CA] [A,CA][A,CA] | [D,D]2 [D,D]2 z _B, | [C,A,]4 [C,_B,C]2 |[M:2/4] [F,A,C]4 | %32
[M:1/4] CD |[M:3/4] z F [E,G,CE]2 [E,G,CE]2 | C,2 z[K:treble] A GE | z[K:treble] F [G,B,F]2 FF | %36
[M:2/4][K:bass] C,2 G,2 |[M:1/4] C,2 |[M:3/4] D,2 [D,A,][D,C] [D,B,][D,D] | [G,D]2 [G,D]2 [C,C]2 | %40
 .B,2 z2 z2 |[M:7/8] D,2 G,,3 CD |[M:3/4] z F [E,G,CE]2 [E,G,CE]2 | C,2 z[K:treble] A GE | %44
 z[K:treble] F [G,B,F]2 FF | C,2 G,2 C,2 | E,2 [E,B,][E,D] [E,C][E,E] | [A,E]2 [A,E]2 [F,F]2 | %48
 ED [G,EG][G,CE] [G,B,A][G,CG] | [G,B,F]2[K:bass] [C,C]2 z2 | [F,C]2 [F,C]2 z2 | %51
 [F,CF]2 .[F,CF]2 z2 | [F,C]>[F,C] [F,C][F,C] [F,C][F,CF] | [G,CE]>[G,CE] .[G,CE]2 z2 | %54
 C,2 z[K:treble] D EF | C,2 z[K:treble] E Gc | [C,C]>[C,C] [C,C][C,C] [C,C][C,C] | %57
 [F,DF]>[F,CF] [F,CF][F,A,F] [F,C][K:treble][F,F] | [A,EA]2 [A,EA][A,EA] [A,EG][A,EG] | %59
 [_B,DF]2 [B,F][B,F] [B,F][A,B,F] | [G,B,G]2 [G,B,G][G,B,G] [G,B,G][G,B,G] | %61
 [CG]2 [CG][CG] [CG][_B,CG] | [A,^CA]2 [A,CA][A,CA] [A,CA][A,CA] | [D,D]2 [D,D]2 z _B, | %64
 [C,A,]4 [C,_B,C]2 |[M:2/4] [F,A,C]4 |[M:1/4] CD |[M:3/4] z F [E,G,CE]2 [E,G,CE]2 | %68
 C,2 z[K:treble] A GE | z[K:treble] F [G,B,F]2 FF |[M:2/4][K:bass] C,2 G,2 |[M:1/4] C,2 | %72
[M:3/4] D,2 [D,A,][D,C] [D,B,][D,D] | [G,D]2 [G,D]2 [C,C]2 | .B,2 z2 z2 |[M:7/8] D,2 G,,3 CD | %76
[M:3/4] z F [E,G,CE]2 [E,G,CE]2 | C,2 z[K:treble] A GE | z[K:treble] F [G,B,F]2 FF | C,2 G,2 C,2 | %80
 E,2 [E,B,][E,D] [E,C][E,E] | [A,E]2 [A,E]2 [F,F]2 | ED [G,EG][G,CE] [G,B,A][G,CG] | %83
 [G,B,F]2[K:bass] C,2 z2 |[M:1/4] F,A, |[M:3/4] C4 C,2 | F,4 F,A, | C4 C,2 | F,4 z2 | %89
 [_B,,_B,]>[B,,B,] [B,,B,][B,,F,] [B,,F,]B,, | C,>C, C,2 D,2 | _B,,4 C,2 | F,4 z2 |] %93
V:4
 x6 | x6 | x6 | x6 | z2 C,2[K:treble] z2 | z2 C,2[K:treble] z2 | x6 | x5[K:treble] x | x6 | x6 | %10
 x6 | x6 | x6 | x6 | x6 | x6 | x6 | x6 | x6 | x6 | z2 C,2[K:treble] z2 | z2 C,2[K:treble] z2 | x6 | %23
 x5[K:treble] x | x6 | x6 | x6 | x6 | x6 | z2 z2 _B,,2 | x6 |[M:2/4] x4 |[M:1/4] x2 | %33
[M:3/4] C,2 z2 z2 | z2 G,2[K:treble] [G,C]2 | G,,2[K:treble] z2 [G,B,]2 |[M:2/4][K:bass] x4 | %37
[M:1/4] x2 |[M:3/4] x6 | x6 | [D,D]-[D,A,D] D,D, D,D, |[M:7/8] x7 |[M:3/4] C,2 z2 z2 | %43
 z2 G,2[K:treble] [G,C]2 | G,,2[K:treble] z2 [G,B,]2 | x6 | x6 | x6 | [G,G]2 z2 z2 | %49
 x2[K:bass] x4 | x6 | x6 | x6 | x6 | z2 C,2[K:treble] z2 | z2 C,2[K:treble] z2 | x6 | %57
 x5[K:treble] x | x6 | x6 | x6 | x6 | x6 | z2 z2 _B,,2 | x6 |[M:2/4] x4 |[M:1/4] x2 | %67
[M:3/4] C,2 z2 z2 | z2 G,2[K:treble] [G,C]2 | G,,2[K:treble] z2 [G,B,]2 |[M:2/4][K:bass] x4 | %71
[M:1/4] x2 |[M:3/4] x6 | x6 | [D,D]-[D,A,D] D,D, D,D, |[M:7/8] x7 |[M:3/4] C,2 z2 z2 | %77
 z2 G,2[K:treble] [G,C]2 | G,,2[K:treble] z2 [G,B,]2 | x6 | x6 | x6 | [G,G]2 z2 z2 | %83
 x2[K:bass] x4 |[M:1/4] x2 |[M:3/4] x6 | x6 | x6 | x6 | x6 | x6 | x6 | x6 |] %93
V:5
 x6 | x6 | x6 | x6 | x6 | x6 | x6 | x6 | x6 | x6 | x6 | x6 | x6 | x6 | x6 | x6 | x6 | x6 | x6 | %19
 x6 | x6 | x6 | x6 | x6 | x6 | x6 | x6 | x6 | x6 | x6 | x6 |[M:2/4] x4 |[M:1/4] x2 |[M:3/4] x6 | %34
 z2 C2 z2 | x6 |[M:2/4] x4 |[M:1/4] x2 |[M:3/4] x6 | x6 | x6 |[M:7/8] x7 |[M:3/4] x6 | z2 C2 z2 | %44
 x6 | x6 | x6 | x6 | x6 | x6 | x6 | x6 | x6 | x6 | x6 | x6 | x6 | x6 | x6 | x6 | x6 | x6 | x6 | %63
 x6 | x6 |[M:2/4] x4 |[M:1/4] x2 |[M:3/4] x6 | z2 C2 z2 | x6 |[M:2/4] x4 |[M:1/4] x2 |[M:3/4] x6 | %73
 x6 | x6 |[M:7/8] x7 |[M:3/4] x6 | z2 C2 z2 | x6 | x6 | x6 | x6 | x6 | x6 |[M:1/4] x2 |[M:3/4] x6 | %86
 x6 | x6 | x6 | x6 | x6 | x6 | x6 |] %93

